X: 22288
T: La Piquée Double
R: jig
M: 6/8
K: Dmajor
|:ddd B2 B|ddd B3|1 GGG A2 A|d2 c B2 G:|2 GGG A2 c|B2 A G3||
|:GGG A2 A|d2 c B2 d|1 GGG A2 d|B2 A B2 G:|2 GGG A2 c|B2 A G3||
|:A^GA F2 F|A^GA E3|1 DDD E2 E|A2 G F2 D:|2 DDD E2 G|F2 E D3||
|:DDD E2 E|A2 G F2 A|1 DDD E2 A|F2 E F2 D:|2 DDD E2 G|F2 E D3||

